!!!COM:	Josquin des Prez
!!!CDT:	~1450-1521/08/27
!!!OTL@@LAT:	Ave Maria...virgo serena (&agrave; 4)
!!!AGN:	Motet
!!!SCT:	NJE 23.6
!!!SCA:	New Josquin Edition 23.6
!!!voices:	4
**kern	**text	**kern	**text	**kern	**text	**kern	**text
*staff4	*staff4	*staff3	*staff3	*staff2	*staff2	*staff1	*staff1
*Ivox	*	*Ivox	*	*Ivox	*	*Ivox	*
*I"Bassus	*	*I"Tenor	*	*I"Altus	*	*I"Superius	*
*I'B	*	*I'T	*	*I'A	*	*I'S	*
*clefF4	*	*clefGv2	*	*clefGv2	*	*clefG2	*
*k[]	*	*k[]	*	*k[]	*	*k[]	*
*M2/1	*	*M2/1	*	*M2/1	*	*M2/1	*
*met(C|)	*	*met(C|)	*	*met(C|)	*	*met(C|)	*
!!section: Ave Maria
!!!OMD: Ave Maria
=1-	=1-	=1-	=1-	=1-	=1-	=1-	=1-
0r	.	0r	.	0r	.	1g	A-
.	.	.	.	.	.	[1cc	-ve
=2	=2	=2	=2	=2	=2	=2	=2
0r	.	0r	.	0r	.	1cc]	.
.	.	.	.	.	.	1cc	Ma-
=3	=3	=3	=3	=3	=3	=3	=3
0r	.	0r	.	1G	A-	1dd	-ri-
.	.	.	.	[1c	-ve	1ee	.
=4	=4	=4	=4	=4	=4	=4	=4
0r	.	0r	.	1c]	.	0cc	-a,
.	.	.	.	1c	Ma-	.	.
=5	=5	=5	=5	=5	=5	=5	=5
0r	.	1G	A-	1d	-ri-	0r	.
.	.	[1c	-ve	1e	.	.	.
=6	=6	=6	=6	=6	=6	=6	=6
0r	.	1c]	.	0c	-a,	0r	.
.	.	1c	Ma-	.	.	.	.
=7	=7	=7	=7	=7	=7	=7	=7
1GG	A-	1d	-ri-	0r	.	0r	.
[1C	-ve	1e	.	.	.	.	.
=8	=8	=8	=8	=8	=8	=8	=8
1C]	.	0c	-a,	0r	.	1.cc	gra-
1C	Ma-	.	.	.	.	.	.
.	.	.	.	.	.	2b\	.
=9	=9	=9	=9	=9	=9	=9	=9
1D	-ri-	0r	.	0r	.	1a	-ti-
1E	.	.	.	.	.	1g	-a
=10	=10	=10	=10	=10	=10	=10	=10
0C	-a,	0r	.	1.c	gra-	2a/	ple-
.	.	.	.	.	.	2g/	.
.	.	.	.	.	.	[1cc	.
.	.	.	.	2B\	.	.	.
=11	=11	=11	=11	=11	=11	=11	=11
0r	.	0r	.	1A	-ti-	2cc\]	.
.	.	.	.	.	.	4b\	.
.	.	.	.	.	.	4a/	.
.	.	.	.	1G	-a	1b	.
=12	=12	=12	=12	=12	=12	=12	=12
0r	.	1.c	gra-	2.A/	ple-	0cc	-na,
.	.	.	.	4G/	.	.	.
.	.	.	.	[1c	.	.	.
.	.	2B\	.	.	.	.	.
=13	=13	=13	=13	=13	=13	=13	=13
0r	.	1A	-ti-	2c\]	.	0r	.
.	.	.	.	4B\	.	.	.
.	.	.	.	4A/	.	.	.
.	.	1G	-a	1B	.	.	.
=14	=14	=14	=14	=14	=14	=14	=14
1.C	gra-	2A/	ple-	0c	-na,	0r	.
.	.	2G/	.	.	.	.	.
.	.	[1c	.	.	.	.	.
2BB/	.	.	.	.	.	.	.
=15	=15	=15	=15	=15	=15	=15	=15
1AA	-ti-	2c\]	.	0r	.	0r	.
.	.	4B\	.	.	.	.	.
.	.	4A/	.	.	.	.	.
1GG	-a	1B	.	.	.	.	.
=16	=16	=16	=16	=16	=16	=16	=16
1.AA	ple-	0c	-na,	0r	.	1r	.
.	.	.	.	.	.	[1cc	Do-
2BB/	.	.	.	.	.	.	.
=17	=17	=17	=17	=17	=17	=17	=17
0C	-na,	0r	.	0r	.	2cc\]	.
.	.	.	.	.	.	2cc\	-mi-
.	.	.	.	.	.	1cc	-nus
=18	=18	=18	=18	=18	=18	=18	=18
0r	.	0r	.	1r	.	1dd	te-
.	.	.	.	[1c	Do-	1ee	.
=19	=19	=19	=19	=19	=19	=19	=19
0r	.	0r	.	2c\]	.	2.cc\	.
.	.	.	.	2c\	-mi-	.	.
.	.	.	.	.	.	4b\	.
.	.	.	.	1c	-nus	2a/	.
.	.	.	.	.	.	2g/	.
=20	=20	=20	=20	=20	=20	=20	=20
0r	.	1r	.	1d	te-	1f	.
.	.	[1c	Do-	1e	.	2e/	.
.	.	.	.	.	.	[2cc\	.
=21	=21	=21	=21	=21	=21	=21	=21
0r	.	2c\]	.	0c	-cum,	4cc\]	.
.	.	.	.	.	.	4b\	.
.	.	2c\	-mi-	.	.	1a	.
.	.	1c	-nus	.	.	.	.
.	.	.	.	.	.	2g/	.
=22	=22	=22	=22	=22	=22	=22	=22
1r	.	1d	te-	0r	.	1f	.
[1C	Do-	1e	.	.	.	1e	-cum,
=23	=23	=23	=23	=23	=23	=23	=23
2C/]	.	2c\	.	0c	vir-	0r	.
2C/	-mi-	2.e\	.	.	.	.	.
1C	-nus	.	.	.	.	.	.
.	.	4d\	.	.	.	.	.
.	.	[2g\	.	.	.	.	.
=24	=24	=24	=24	=24	=24	=24	=24
1D	te-	2g\]	.	1A	-go	0r	.
.	.	2f#i\	.	.	.	.	.
1E	.	1g	-cum,	1G	se-	.	.
=25	=25	=25	=25	=25	=25	=25	=25
0C	-cum,	0r	.	2.A/	-re-	0cc	vir-
.	.	.	.	4B\	.	.	.
.	.	.	.	[1c	.	.	.
=26	=26	=26	=26	=26	=26	=26	=26
0r	.	0c	vir-	2c\]	.	1a	-go
.	.	.	.	2d\	.	.	.
.	.	.	.	[1e	.	1g	se-
=27	=27	=27	=27	=27	=27	=27	=27
0r	.	1A	-go	2e\]	.	1cc	-re-
.	.	.	.	4d\	.	.	.
.	.	.	.	4c\	.	.	.
.	.	1G	se-	2.g\	.	1dd	.
.	.	.	.	4f\	.	.	.
=28	=28	=28	=28	=28	=28	=28	=28
0C	vir-	2.g\	-re-	4e\	.	1ee	-na,
.	.	.	.	4d\	.	.	.
.	.	.	.	1.c	.	.	.
.	.	4f\	.	.	.	.	.
.	.	4e\	.	.	.	2r	.
.	.	4d\	.	.	.	.	.
.	.	[2c\	.	.	.	[2ee\	se-
=29	=29	=29	=29	=29	=29	=29	=29
1AA	-go	4c\]	.	2e\	.	4ee\]	.
.	.	4B\	.	.	.	4dd\	.
.	.	2c\	.	2f\	.	1cc	-re-
1GG	se-	1d	.	1g	.	.	.
.	.	.	.	.	.	2b\	.
=30	=30	=30	=30	=30	=30	=30	=30
1.AA	-re-	[0c	-na,	0e	-na,	0cc	-na.
2BB/	.	.	.	.	.	.	.
=31	=31	=31	=31	=31	=31	=31	=31
0C	-na,	0c]	.	1r	.	1r	.
.	.	.	.	1c	A-	1cc	A-
=32	=32	=32	=32	=32	=32	=32	=32
0r	.	0r	.	1e	-ve	1cc	-ve
.	.	.	.	1f	cu-	1dd	cu-
=33	=33	=33	=33	=33	=33	=33	=33
0r	.	0r	.	1g	-jus	1ee	-jus
.	.	.	.	2g\	con-	2ee\	con-
.	.	.	.	[2a\	-cep-	[2ff\	-cep-
=34	=34	=34	=34	=34	=34	=34	=34
0r	.	0r	.	2a\]	.	4ff\]	.
.	.	.	.	.	.	4ee\	.
.	.	.	.	2g\	.	1ee	.
.	.	.	.	1f	-ti-	.	.
.	.	.	.	.	.	2dd\	-ti-
=35	=35	=35	=35	=35	=35	=35	=35
1r	.	1r	.	0e	-o,	0ee	-o,
1C	A-	1c	A-	.	.	.	.
=36	=36	=36	=36	=36	=36	=36	=36
1E	-ve	1c	-ve	1r	.	0r	.
1F	cu-	1d	cu-	1A	con-	.	.
=37	=37	=37	=37	=37	=37	=37	=37
1G	-jus	1e	-jus	1.B	-cep-	0r	.
2G\	con-	2e\	con-	.	.	.	.
[2A\	-cep-	[2f\	-cep-	[2c\	.	.	.
=38	=38	=38	=38	=38	=38	=38	=38
2A\]	.	2f\]	.	4c\]	.	0r	.
.	.	.	.	4B\	.	.	.
2G\	.	1e	.	1B	.	.	.
1F	-ti-	.	.	.	.	.	.
.	.	2d\	-ti-	2A/	-ti-	.	.
=39	=39	=39	=39	=39	=39	=39	=39
0E	-o,	0e	-o,	0B	-o,	0r	.
=40	=40	=40	=40	=40	=40	=40	=40
1r	.	1r	.	1r	.	1r	.
1C	So-	1g	So-	1c	So-	1ee	So-
=41	=41	=41	=41	=41	=41	=41	=41
1C	-lem-	1g	-lem-	1c	-lem-	1ee	-lem-
1C	-ni	1g	-ni	1c	-ni	1ee	-ni
=42	=42	=42	=42	=42	=42	=42	=42
2.F\	ple-	1.a	ple-	1.c	ple-	1.ff	ple-
4E\	.	.	.	.	.	.	.
2F\	.	.	.	.	.	.	.
2C/	-na	2g\	-na	4d\	-na	2ee\	-na
.	.	.	.	4e\	.	.	.
=43	=43	=43	=43	=43	=43	=43	=43
2D\	gau-	1f	gau-	2f\	gau-	1dd	gau-
2BB/	.	.	.	2d\	-di-	.	.
1C	-di-	1e	-di-	[1g	-o,	1cc	-di-
=44	=44	=44	=44	=44	=44	=44	=44
1.G	-o,	1d	-o,	0g]	.	1b	-o,
.	.	2B\	Ce-	.	.	1g	Ce-
2E\	Ce-	[2c\	-le-	.	.	.	.
=45	=45	=45	=45	=45	=45	=45	=45
1F	-le-	2c\]	.	2f\	Ce-	1a	-le-
.	.	1d	-sti-	2a\	-le-	.	.
1G	-sti-	.	.	1g	-sti-	1b	-sti-
.	.	[2e\	-a,	.	.	.	.
=46	=46	=46	=46	=46	=46	=46	=46
1.A	-a,	2e\]	.	1c	-a,	1cc	-a,
.	.	1c	ter-	.	.	.	.
.	.	.	.	1a	ter-	1a	ter-
2F\	ter-	[2d\	-res-	.	.	.	.
=47	=47	=47	=47	=47	=47	=47	=47
1G	-res-	2d\]	.	2g\	-res-	1b	-res-
.	.	1e	-tri-	2b\	.	.	.
1A	-tri-	.	.	1a	-tri-	1cc	-tri-
.	.	[2f\	-a,	.	.	.	.
=48	=48	=48	=48	=48	=48	=48	=48
1.B-i	-a,	2f\]	.	2.d\	-a,	1dd	-a,
.	.	1d	No-	.	.	.	.
.	.	.	.	4e\	.	.	.
.	.	.	.	2f\	.	1b	No-
2G\	No-	[2e\	-va	2g\	No-	.	.
=49	=49	=49	=49	=49	=49	=49	=49
1A	-va	2e\]	.	1c	-va	1cc	-va
.	.	1f	re-	.	.	.	.
1B	re-	.	.	2r	.	1dd	re-
.	.	[2g\	-plet	2d\	re-	.	.
=50	=50	=50	=50	=50	=50	=50	=50
2.c\	-plet	2g\]	.	2c\	-plet	2.ee\	-plet
.	.	2.a\	.	2.A/	.	.	.
4B\	.	.	.	.	.	4dd\	.
2c\	.	.	.	.	.	2ee\	.
.	.	4g\	.	4B\	.	.	.
2A\	.	2a\	.	2c\	.	[2ff\	.
=51	=51	=51	=51	=51	=51	=51	=51
2.B\	.	2f\	.	2d\	.	4ff\]	.
.	.	.	.	.	.	4ee\	.
.	.	2.g\	.	2.G/	.	4dd\	.
4A\	.	.	.	.	.	4cc\	.
2B\	.	.	.	.	.	2dd\	le-
.	.	4f\	.	4A/	.	.	.
2G\	le-	2g\	le-	2B\	.	[2ee\	-ti-
=52	=52	=52	=52	=52	=52	=52	=52
2A\	-ti-	2e\	-ti-	2c\	.	4ee\]	.
.	.	.	.	.	.	4dd\	.
2F\	.	2f\	.	2A/	.	1cc	.
1G	-ti-	1d	-ti-	1G	le-	.	.
.	.	.	.	.	.	2b\	-ti-
=53	=53	=53	=53	=53	=53	=53	=53
[0C	-a.	[0c	-a.	2G/	-ti-	0cc	-a.
.	.	.	.	2.g\	.	.	.
.	.	.	.	4f\	.	.	.
.	.	.	.	4e\	-ti-	.	.
.	.	.	.	4d\	.	.	.
=54	=54	=54	=54	=54	=54	=54	=54
0C]	.	0c]	.	1e	-a.	1r	.
.	.	.	.	1r	.	1g	A-
=55	=55	=55	=55	=55	=55	=55	=55
0r	.	0r	.	1c	A-	1.cc	-ve
.	.	.	.	[1f	-ve	.	.
.	.	.	.	.	.	2b\	cu-
=56	=56	=56	=56	=56	=56	=56	=56
0r	.	0r	.	2f\]	.	1cc	-jus
.	.	.	.	2e\	cu-	.	.
.	.	.	.	1f	-jus	1dd	na-
=57	=57	=57	=57	=57	=57	=57	=57
0r	.	0r	.	1g	na-	1.b	-ti-
.	.	.	.	[1e	-ti-	.	.
.	.	.	.	.	.	4a/	-vi-
.	.	.	.	.	.	4g/	.
=58	=58	=58	=58	=58	=58	=58	=58
0r	.	0r	.	2e\]	.	1g	-tas,
.	.	.	.	4d\	-vi-	.	.
.	.	.	.	4c\	.	.	.
.	.	.	.	1c	-tas,	2g/	na-
.	.	.	.	.	.	[2a/	-ti-
=59	=59	=59	=59	=59	=59	=59	=59
0r	.	1r	.	2B\	na-	4a/]	.
.	.	.	.	.	.	4g/	.
.	.	.	.	2c\	-ti-	1cc	.
.	.	1G	Nos-	1d	-vi-	.	.
.	.	.	.	.	.	2b\	-vi-
=60	=60	=60	=60	=60	=60	=60	=60
1C	Nos-	1.c	-tra	1c	-tas,	0cc	-tas,
[1F	-tra	.	.	1r	.	.	.
.	.	2B\	fu-	.	.	.	.
=61	=61	=61	=61	=61	=61	=61	=61
2F\]	.	1c	-it	0r	.	0r	.
2E\	fu-	.	.	.	.	.	.
1F	-it	1d	so-	.	.	.	.
=62	=62	=62	=62	=62	=62	=62	=62
1G	so-	1.B	-lem-	0r	.	0r	.
[1E	-lem-	.	.	.	.	.	.
.	.	4A/	-ni-	.	.	.	.
.	.	4G/	.	.	.	.	.
=63	=63	=63	=63	=63	=63	=63	=63
2E\]	.	1G	-tas,	0r	.	0r	.
4D\	-ni-	.	.	.	.	.	.
4C/	.	.	.	.	.	.	.
1C	-tas,	2G/	so-	.	.	.	.
.	.	[2A/	-lem-	.	.	.	.
=64	=64	=64	=64	=64	=64	=64	=64
2BB/	so-	4A/]	.	0r	.	1r	.
.	.	4G/	.	.	.	.	.
2C/	-lem-	1c	.	.	.	.	.
1D	-ni-	.	.	.	.	1dd	Ut
.	.	2B\	-ni-	.	.	.	.
=65	=65	=65	=65	=65	=65	=65	=65
0C	-tas,	0c	-tas,	0r	.	1ee	lu-
.	.	.	.	.	.	1cc	-ci-
=66	=66	=66	=66	=66	=66	=66	=66
0r	.	0r	.	1r	.	1dd	-fer
.	.	.	.	1g	Ut	1b	lux
=67	=67	=67	=67	=67	=67	=67	=67
0r	.	1r	.	1a	lu-	2.cc\	o-
.	.	.	.	.	.	4b\	.
.	.	1d	Ut	1f	-ci-	1a	-ri-
=68	=68	=68	=68	=68	=68	=68	=68
0r	.	1e	lu-	1g	-fer	0g	-ens
.	.	1c	-ci-	1e	lux	.	.
=69	=69	=69	=69	=69	=69	=69	=69
1r	.	1d	-fer	2.f\	o-	0r	.
.	.	.	.	4e\	.	.	.
1G	Ut	1B	lux	1d	-ri-	.	.
=70	=70	=70	=70	=70	=70	=70	=70
1A	lu-	2.c\	o-	2.c\	-ens	0r	.
.	.	4B\	.	4B\	.	.	.
1F	-ci-	1A	-ri-	2c\	.	.	.
.	.	.	.	[2d\	Ve-	.	.
=71	=71	=71	=71	=71	=71	=71	=71
1G	-fer	1G	-ens	4d\]	.	1r	.
.	.	.	.	4B\	.	.	.
.	.	.	.	1B	-rum	.	.
1E	lux	1g	Ve-	.	.	1g	Ve-
.	.	.	.	[2c\	so-	.	.
=72	=72	=72	=72	=72	=72	=72	=72
2.F\	o-	1a	-rum	4c\]	.	1cc	-rum
.	.	.	.	4B\	.	.	.
.	.	.	.	1A	-lem	.	.
4E\	.	.	.	.	.	.	.
1D	-ri-	1f	so-	.	.	1dd	so-
.	.	.	.	4G/	pre-	.	.
.	.	.	.	4F/	.	.	.
=73	=73	=73	=73	=73	=73	=73	=73
1C	-ens	1g	-lem	1c	-ve-	1ee	-lem
1G	Ve-	2r	.	1B	.	2dd\	pre-
.	.	2g\	pre-	.	.	[2ee\	-ve-
=74	=74	=74	=74	=74	=74	=74	=74
1A	-rum	2e\	-ve-	1c	-ni-	4ee\]	.
.	.	.	.	.	.	4cc\	.
.	.	2.f\	.	.	.	1cc	.
1F	so-	.	.	1A	.	.	.
.	.	4e\	.	.	.	.	.
.	.	4d\	.	.	.	[2dd\	.
.	.	4c\	.	.	.	.	.
=75	=75	=75	=75	=75	=75	=75	=75
1G	-lem	2B\	.	0G	-ens.	4dd\]	.
.	.	.	.	.	.	4b\	.
.	.	2G/	.	.	.	1b	.
1E	pre-	1g	.	.	.	.	.
.	.	.	.	.	.	2ee\	.
=76	=76	=76	=76	=76	=76	=76	=76
1F	-ve-	2f\	.	0r	.	4dd\	.
.	.	.	.	.	.	4cc\	.
.	.	2e\	.	.	.	1cc	.
1G	-ni-	1d	-ni-	.	.	.	.
.	.	.	.	.	.	2b\	-ni-
=77	=77	=77	=77	=77	=77	=77	=77
0C	-ens.	0c	-ens.	0r	.	1cc	-ens.
.	.	.	.	.	.	1r	.
=78	=78	=78	=78	=78	=78	=78	=78
0r	.	0r	.	1c	A-	1cc	A-
.	.	.	.	2c\	-ve,	2cc\	-ve,
.	.	.	.	2c\	pi-	2cc\	pi-
=79	=79	=79	=79	=79	=79	=79	=79
0r	.	0r	.	1g	-a	1dd	-a
.	.	.	.	2g\	hu-	2b\	hu-
.	.	.	.	[2a\	-mi-	[2cc\	-mi-
=80	=80	=80	=80	=80	=80	=80	=80
0r	.	0r	.	4a\]	.	2cc\]	.
.	.	.	.	4g\	.	.	.
.	.	.	.	1g	.	2b\	.
.	.	.	.	.	.	1a	-li-
.	.	.	.	2f#i\	-li-	.	.
=81	=81	=81	=81	=81	=81	=81	=81
1C	Si-	1c	Si-	0g	-tas,	0g	-tas,
2C/	-ne	2c\	-ne	.	.	.	.
2C/	vi-	2c\	vi-	.	.	.	.
=82	=82	=82	=82	=82	=82	=82	=82
1G	-ro	1d	-ro	0r	.	0r	.
2G\	fe-	2B\	fe-	.	.	.	.
[2A\	-cun-	[2c\	-cun-	.	.	.	.
=83	=83	=83	=83	=83	=83	=83	=83
4A\]	.	2c\]	.	0r	.	0r	.
4G\	.	.	.	.	.	.	.
1G	.	2B\	.	.	.	.	.
.	.	1A	-di-	.	.	.	.
2F#i\	-di-	.	.	.	.	.	.
=84	=84	=84	=84	=84	=84	=84	=84
0G	-tas,	0G	-tas,	2.g\	Cu-	1b	Cu-
.	.	.	.	4f\	.	.	.
.	.	.	.	2e\	-jus	2b\	-jus
.	.	.	.	2d\	an-	2b\	an-
=85	=85	=85	=85	=85	=85	=85	=85
0r	.	0r	.	1c	-nun-	1cc	-nun-
.	.	.	.	2d\	-ci-	2b\	-ci-
.	.	.	.	[2f\	-a-	[2a/	-a-
=86	=86	=86	=86	=86	=86	=86	=86
0r	.	0r	.	4f\]	.	2a/]	.
.	.	.	.	4e\	.	.	.
.	.	.	.	1e	.	2g/	.
.	.	.	.	.	.	1f	-ti-
.	.	.	.	2d\	-ti-	.	.
=87	=87	=87	=87	=87	=87	=87	=87
0r	.	0r	.	1.e	-o	1e	-o
.	.	.	.	.	.	2r	.
.	.	.	.	4d\	.	[2e/	o...
.	.	.	.	4c\	.	.	.
=88	=88	=88	=88	=88	=88	=88	=88
1r	.	1r	.	1g	.	2e/]	.
.	.	.	.	.	.	4d/	.
.	.	.	.	.	.	4c/	.
1C	Nos-	1e	Nos-	1c	.	1g	.
=89	=89	=89	=89	=89	=89	=89	=89
1.G	-tra	1e	-tra	0r	.	0r	.
.	.	1d	fu-	.	.	.	.
[2F\	fu-	.	.	.	.	.	.
=90	=90	=90	=90	=90	=90	=90	=90
2F\]	.	1f	-it	0r	.	0r	.
4E\	.	.	.	.	.	.	.
4D\	.	.	.	.	.	.	.
2C/	-it	1e	re-	.	.	.	.
[2G\	re-	.	.	.	.	.	.
=91	=91	=91	=91	=91	=91	=91	=91
2G\]	.	2.d\	-demp-	0r	.	0r	.
1F	-demp-	.	.	.	.	.	.
.	.	4c\	.	.	.	.	.
.	.	2d\	.	.	.	.	.
4E\	.	[2e\	.	.	.	.	.
4D\	.	.	.	.	.	.	.
=92	=92	=92	=92	=92	=92	=92	=92
2C/	.	4e\]	.	0r	.	0r	.
.	.	4d\	.	.	.	.	.
2E\	.	1c	.	.	.	.	.
1D	-ti-	.	.	.	.	.	.
.	.	2B\	-ti-	.	.	.	.
=93	=93	=93	=93	=93	=93	=93	=93
*	*	*M3/1	*	*	*	*	*
*	*	*met(3)	*	*	*	*	*
0C	-o.	3%4.c	-o.	0r	.	0r	.
=94	=94	=94	=94	=94	=94	=94	=94
*M3/1	*	*	*	*	*	*	*
*met(3)	*	*	*	*	*	*	*
3%2c	A-	3%2r	.	3%2eV	A-	3%2gV	A-
3%2c	-ve	3%2c	A-	3%2e	-ve	3%2g	-ve
3%2c	ve-	3%2c	-ve	3%2eZ	ve-	3%2gZ	ve-
=95	=95	=95	=95	=95	=95	=95	=95
3%4F	-ra	3%2c	ve-	3%2.fV	-ra	3%4aV	-ra
.	.	3%4d	-ra	.	.	.	.
.	.	.	.	3e\	.	.	.
3%2F	vir-	.	.	3d\	vir-	3%2aZ	vir-
.	.	.	.	3c\Z	.	.	.
=96	=96	=96	=96	=96	=96	=96	=96
3%4G	-gi-	3%2d	vir-	3%4BV	-gi-	3%4bV	-gi-
.	.	3%4e	-gi-	.	.	.	.
3%2G	-ni-	.	.	3%2BZ	-ni-	3%2bZ	-ni-
=97	=97	=97	=97	=97	=97	=97	=97
3%4C	-tas,	3%2e	-ni-	3%4cV	-tas,	3%4gV	-tas,
.	.	3%4c	-tas,	.	.	.	.
3%2r	.	.	.	3%2rZ	.	3%2rZ	.
=98	=98	=98	=98	=98	=98	=98	=98
3%2c	im-	3%2r	.	3%2eV	im-	3%2gV	im-
3%2c	-ma-	3%2c	im-	3%2e	-ma-	3%2g	-ma-
3%2c	-cu-	3%2c	-ma-	3%2eZ	-cu-	3%2gZ	-cu-
=99	=99	=99	=99	=99	=99	=99	=99
3%4F	-la-	3%2c	-cu-	3%2.fV	-la-	3%4aV	-la-
.	.	3%4d	-la-	.	.	.	.
.	.	.	.	3e\	.	.	.
3%2F	-ta	.	.	3d\	-ta	3%2aZ	-ta
.	.	.	.	3c\Z	.	.	.
=100	=100	=100	=100	=100	=100	=100	=100
3%4G	cas-	3%2d	-ta	3%4BV	cas-	3%4bV	cas-
.	.	3%4e	cas-	.	.	.	.
3%2G	-ti-	.	.	3%2BZ	-ti-	3%2bZ	-ti-
=101	=101	=101	=101	=101	=101	=101	=101
3%4C	-tas,	3%2e	-ti-	3%4cV	-tas,	3%4gV	-tas,
.	.	3%4c	-tas,	.	.	.	.
3%2c	Cu-	.	.	3%2gZ	Cu-	3%2gZ	Cu-
=102	=102	=102	=102	=102	=102	=102	=102
3%4A	-jus	3%2c	Cu-	3%4aV	-jus	3%4ccV	-jus
.	.	3%4f	-jus	.	.	.	.
3%2A	pu-	.	.	3%2aZ	pu-	3%2ccZ	pu-
=103	=103	=103	=103	=103	=103	=103	=103
3%4d	-ri-	3%2f	pu-	3%4fV	-ri-	3%4aV	-ri-
.	.	3%4d	-ri-	.	.	.	.
3%2d	-fi-	.	.	3%2fZ	-fi-	3%2aZ	-fi-
=104	=104	=104	=104	=104	=104	=104	=104
3%4G	-ca-	3%2d	-fi-	3%4gV	-ca-	3%2.ddV	-ca-
.	.	3%2.g	-ca-	.	.	.	.
.	.	.	.	.	.	3cc\	.
3%2G	-ti-	.	.	3%2dZ	-ti-	3b\	-ti-
.	.	3f\	.	.	.	3a/Z	.
=105	=105	=105	=105	=105	=105	=105	=105
3%4c	-o	3e\	-ti-	3%4eV	-o	3%4gV	-o
.	.	3d\	.	.	.	.	.
.	.	3%4c	-o	.	.	.	.
3%2c	Nos-	.	.	3%2gZ	Nos-	3%2gZ	Nos-
=106	=106	=106	=106	=106	=106	=106	=106
3%4A	-tra	3%2c	Nos-	3%2.aV	-tra	3%4ccV	-tra
.	.	3%4f	-tra	.	.	.	.
.	.	.	.	3g\	.	.	.
3%2A	fu-	.	.	3f\	fu-	3%2ccZ	fu-
.	.	.	.	3e\Z	.	.	.
=107	=107	=107	=107	=107	=107	=107	=107
3%2B	-it	3%2f	fu-	3%2dV	-it	3%2ddV	-it
3%2G	.	3%2g	-it	3%2B	pur-	3%2.ee	pur-
3%2A	pur-	3%2e	pur-	3%2cZ	-ga-	.	.
.	.	.	.	.	.	3dd\Z	.
=108	=108	=108	=108	=108	=108	=108	=108
3%4F	-ga-	3%2f	-ga-	3%2AV	.	3%4ccV	-ga-
.	.	3%4d	-ti-	3%4GZ	.	.	.
3%2G	-ti-	.	.	.	.	3%2bZ	-ti-
=109	=109	=109	=109	=109	=109	=109	=109
*M2/1	*	*M2/1	*	*	*	*	*
*met(C|)	*	*met(C|)	*	*	*	*	*
[0C	-o.	[0c	-o.	1g	.	0cc	-o.
.	.	.	.	[1e	.	.	.
=110	=110	=110	=110	=110	=110	=110	=110
0C]	.	0c]	.	2e\]	.	0r	.
.	.	.	.	4d\	-ti-	.	.
.	.	.	.	4c\	.	.	.
.	.	.	.	1c	-o.	.	.
=111	=111	=111	=111	=111	=111	=111	=111
0r	.	0r	.	1r	.	0dd	A-
.	.	.	.	1g	A-	.	.
=112	=112	=112	=112	=112	=112	=112	=112
0r	.	0r	.	1g	-ve	1dd	-ve
.	.	.	.	1f	pre-	1dd	pre-
=113	=113	=113	=113	=113	=113	=113	=113
0r	.	0r	.	2e\	-cla-	1.ee	-cla-
.	.	.	.	4d\	.	.	.
.	.	.	.	4c\	.	.	.
.	.	.	.	1g	.	.	.
.	.	.	.	.	.	4dd\	.
.	.	.	.	.	.	4cc\	.
=114	=114	=114	=114	=114	=114	=114	=114
1r	.	0d	A-	0G	-ra	1b	-ra
1G	A-	.	.	.	.	2b\	om-
.	.	.	.	.	.	[2dd\	.
=115	=115	=115	=115	=115	=115	=115	=115
1G	-ve	1d	-ve	1r	.	2dd\]	.
.	.	.	.	.	.	4cc\	.
.	.	.	.	.	.	4b\	.
1F	pre-	1d	pre-	1A	om-	1a	-ni-
=116	=116	=116	=116	=116	=116	=116	=116
1E	-cla-	1.e	-cla-	2B\	.	0g	-bus
.	.	.	.	1c	.	.	.
1C	-ra	.	.	.	.	.	.
.	.	4d\	.	2c\	-ni-	.	.
.	.	4c\	.	.	.	.	.
=117	=117	=117	=117	=117	=117	=117	=117
1.G	om-	1B	-ra	4d\	-bus	0r	.
.	.	.	.	4c\	.	.	.
.	.	.	.	4B\	.	.	.
.	.	.	.	4A/	.	.	.
.	.	2B\	om-	1G	.	.	.
4F\	.	[2d\	.	.	.	.	.
4E\	.	.	.	.	.	.	.
=118	=118	=118	=118	=118	=118	=118	=118
2F\	.	2d\]	.	0r	.	0r	.
1G	.	4c\	.	.	.	.	.
.	.	4B\	.	.	.	.	.
.	.	1A	-ni-	.	.	.	.
2F#i\	-ni-	.	.	.	.	.	.
=119	=119	=119	=119	=119	=119	=119	=119
0G	-bus	0G	-bus	1r	.	0dd	An-
.	.	.	.	1g	An-	.	.
=120	=120	=120	=120	=120	=120	=120	=120
0r	.	0r	.	1g	-ge-	1dd	-ge-
.	.	.	.	1f	-li-	1dd	-li-
=121	=121	=121	=121	=121	=121	=121	=121
0r	.	0r	.	2e\	-cis	1.ee	-cis
.	.	.	.	4d\	.	.	.
.	.	.	.	4c\	.	.	.
.	.	.	.	1g	.	.	.
.	.	.	.	.	.	4dd\	.
.	.	.	.	.	.	4cc\	.
=122	=122	=122	=122	=122	=122	=122	=122
1r	.	0d	An-	0G	.	1b	.
1G	An-	.	.	.	.	2b\	vir-
.	.	.	.	.	.	[2dd\	-tu-
=123	=123	=123	=123	=123	=123	=123	=123
1G	-ge-	1d	-ge-	1r	.	2dd\]	.
.	.	.	.	.	.	4cc\	.
.	.	.	.	.	.	4b\	.
1F	-li-	1d	-li-	1A	vir-	1a	-ti-
=124	=124	=124	=124	=124	=124	=124	=124
1E	-cis	1.e	-cis	2B\	-tu-	0g	-bus,
.	.	.	.	1c	.	.	.
1C	vir-	.	.	.	.	.	.
.	.	4d\	.	2c\	-ti-	.	.
.	.	4c\	.	.	.	.	.
=125	=125	=125	=125	=125	=125	=125	=125
1.G	-tu-	1B	.	4d\	-bus,	0r	.
.	.	.	.	4c\	.	.	.
.	.	.	.	4B\	.	.	.
.	.	.	.	4A/	.	.	.
.	.	2B\	vir-	1G	.	.	.
4F\	.	[2d\	-tu-	.	.	.	.
4E\	.	.	.	.	.	.	.
=126	=126	=126	=126	=126	=126	=126	=126
2F\	.	2d\]	.	0r	.	0r	.
1G	.	4c\	.	.	.	.	.
.	.	4B\	.	.	.	.	.
.	.	1A	-ti-	.	.	.	.
2F#i\	-ti-	.	.	.	.	.	.
=127	=127	=127	=127	=127	=127	=127	=127
0G	-bus,	0G	-bus,	2r	.	1r	.
.	.	.	.	1g	Cu-	.	.
.	.	.	.	.	.	1g	Cu-
.	.	.	.	4f\	.	.	.
.	.	.	.	4e\	.	.	.
=128	=128	=128	=128	=128	=128	=128	=128
0r	.	0r	.	2f\	.	1a	-jus
.	.	.	.	1d	-jus	.	.
.	.	.	.	.	.	1b	fu-
.	.	.	.	[2e\	fu-	.	.
=129	=129	=129	=129	=129	=129	=129	=129
1r	.	1r	.	2e\]	.	1.cc	-it
.	.	.	.	4d\	.	.	.
.	.	.	.	4c\	.	.	.
1G	Cu-	1G	Cu-	1d	-it	.	.
.	.	.	.	.	.	2b\	as-
=130	=130	=130	=130	=130	=130	=130	=130
2.F\	-jus	1A	-jus	2r	.	1cc	-sump-
.	.	.	.	1f	as-	.	.
4E\	.	.	.	.	.	.	.
1D	fu-	1B	fu-	.	.	1dd	-ti-
.	.	.	.	4e\	.	.	.
.	.	.	.	4d\	.	.	.
=131	=131	=131	=131	=131	=131	=131	=131
2.C/	-it	1.c	-it	2.g\	-sump-	0ee	-o
4D\	.	.	.	4f\	.	.	.
4E\	.	.	.	2g\	.	.	.
4F\	.	.	.	.	.	.	.
2G\	as-	2B\	as-	[2e\	.	.	.
=132	=132	=132	=132	=132	=132	=132	=132
2A\	-sump-	1c	-sump-	4e\]	.	0r	.
.	.	.	.	4d\	.	.	.
2E\	.	.	.	4c\	.	.	.
.	.	.	.	4B\	.	.	.
1F	-ti-	1d	-ti-	1A	.	.	.
=133	=133	=133	=133	=133	=133	=133	=133
0E	-o	0e	-o	2B\	.	1r	.
.	.	.	.	2G/	-ti-	.	.
.	.	.	.	1g	-o	1ee	No-
=134	=134	=134	=134	=134	=134	=134	=134
0r	.	0r	.	2r	.	1ee	-stra
.	.	.	.	2.g\	No-	.	.
.	.	.	.	.	.	1dd	glo-
.	.	.	.	4f\	-stra	.	.
.	.	.	.	2d\	glo-	.	.
=135	=135	=135	=135	=135	=135	=135	=135
0r	.	0r	.	2e\	-ri-	1.cc	-ri-
.	.	.	.	2.f\	-fi-	.	.
.	.	.	.	4e\	.	.	.
.	.	.	.	4d\	.	[2dd\	-fi-
.	.	.	.	4c\	.	.	.
=136	=136	=136	=136	=136	=136	=136	=136
0r	.	1r	.	1B	-ca-	1dd]	.
.	.	1e	No-	1c	-ti-	[1cc	-ca-
=137	=137	=137	=137	=137	=137	=137	=137
1r	.	1e	-stra	1G	-o.	2cc\]	.
.	.	.	.	.	.	1.b	-ti-
1G	No-	1d	glo-	2r	.	.	.
.	.	.	.	[2g\	glo-	.	.
=138	=138	=138	=138	=138	=138	=138	=138
2E\	-stra	1.c	-ri-	4g\]	.	1cc	-o.
.	.	.	.	4f\	.	.	.
2.A\	glo-	.	.	4e\	.	.	.
.	.	.	.	4d\	.	.	.
.	.	.	.	2e\	.	1r	.
4G\	.	.	.	.	.	.	.
4F\	.	[2d\	-fi-	[2A/	.	.	.
4E\	.	.	.	.	.	.	.
=139	=139	=139	=139	=139	=139	=139	=139
2F\	.	1d]	.	2A/]	.	0r	.
2G\	-ri-	.	.	2B\	-ri-	.	.
2E\	-fi-	[1c	-ca-	2G/	-fi-	.	.
[2F\	-ca-	.	.	[2A/	-ca-	.	.
=140	=140	=140	=140	=140	=140	=140	=140
4F\]	.	2c\]	.	2A/]	.	0r	.
4E\	.	.	.	.	.	.	.
4D\	.	1.B	-ti-	1G	.	.	.
4C/	.	.	.	.	.	.	.
1D	-ti-	.	.	.	.	.	.
.	.	.	.	2F/	-ti-	.	.
=141	=141	=141	=141	=141	=141	=141	=141
0C	-o.	0c	-o.	0G	-o.	0r	.
=142	=142	=142	=142	=142	=142	=142	=142
0r	.	0r	.	0r	.	0r	.
=143	=143	=143	=143	=143	=143	=143	=143
0C	O	0c	O	0g	O	0cc	O
=144	=144	=144	=144	=144	=144	=144	=144
1G	ma-	1B	ma-	1g	ma-	1dd	ma-
1G	-ter	1B	-ter	1g	-ter	1ee	-ter
=145	=145	=145	=145	=145	=145	=145	=145
1.F	de-	1.A	de-	0a	de-	0ff	de-
4E\	.	2B\	.	.	.	.	.
4D\	.	.	.	.	.	.	.
=146	=146	=146	=146	=146	=146	=146	=146
0C	-i,	0c	-i,	0g	-i,	0ee	-i,
=147	=147	=147	=147	=147	=147	=147	=147
1r	.	1r	.	1r	.	1r	.
1C	Me-	1c	Me-	1g	Me-	1ee	Me-
=148	=148	=148	=148	=148	=148	=148	=148
1c	-men-	1c	-men-	1g	-men-	1ee	-men-
1G	-to	1B	-to	1g	-to	1dd	-to
=149	=149	=149	=149	=149	=149	=149	=149
0A	me-	0c	me-	1e	me-	0cc	me-
.	.	.	.	1f	.	.	.
=150	=150	=150	=150	=150	=150	=150	=150
0G;l	-i,	0d;l	-i,	0g;l	-i,	0b;l	-i,
=151	=151	=151	=151	=151	=151	=151	=151
0C;l	A-	0c;l	A-	0g;l	A-	0cc;l	A-
=152	=152	=152	=152	=152	=152	=152	=152
0Cl	-men.	0cl	-men.	0gl	-men.	0ccl	-men.
==	==	==	==	==	==	==	==
*-	*-	*-	*-	*-	*-	*-	*-
!!!RDF**kern: i=editorial accidental
!!!RDF**kern: %=rational rhythm
!!!rscale-alt: 1/4
!!!RDF**kern: V=start of tuplet marker
!!!RDF**kern: Z=end of tuplet marker
!!!RDF**kern: l=long note in original notation
!!!RDF**kern: i=editorial accidental
!!!ENC:	Jesse Rodin; Victoria Chang 2011/05/17; JR 2013/02 (text)
!!!END:	2013/03/08/
!!!EED:	Jesse Rodin
!!!EEV:	2013/03/08/
!!attribution-level@Jos: 1 (secure)
!!!ONB:	Translated from MusicXML and edited on 2013/03/08/ by Craig Sapp
!!muse2ps: C^@{COM}\n@{SCT}^i2I150v90,90,90,130c90Q16
!!!ONB: April 2013 Concert
